X:33
T:Scotch Set Of Quadrilles No.2. Le4.033
B:L.Leadley MS#4 c1850
Z:Village Music Project, 2016 Steve Mansfield
M:2/4
L:1/8
Q:1/4=100
N:* Quite possibly an a in Mss, but transcribed g
N:  to match all other occurrences of the same phrase
K:Bb
F | B/A/B/c/ Bd | f/=e/f/g/ fd | ._e/.g/.e/.c/ .A/.c/.A/.F/ | (B/A/B/c/) BF |
B/A/B/c/ Bd | f/=e/f/g/ fd | _e/g/e/c/ .A/.c/.A/.F/ | (B/A/B/c/) B2 H||
ddff | BBdd | GGBB | FFF F |
B/A/B/c/ Bd | f/=e/f/g/ fd | e/g/e/c/ .A/.c/.A/.F/ | (B/A/B/c/) B (3c/d/e/ |
bbaa | ggff | g/a/b/g/ =e/c/d/e/ | f/=e/d/e/ f/g/a/f/ |
bbaa | ggff | g/a/b/"*"g/ =e/c/d/e/ | fff z !segno!|]

